static/img/in-field/spinner-size.svg

<svg width="1100" height="179" viewBox="0 0 1100 179" fill="none" xmlns="http://www.w3.org/2000/svg">
<rect width="535" height="158" transform="translate(10 10.3334)" fill="#F1F1F6"/>
<path fill-rule="evenodd" clip-rule="evenodd" d="M277.5 142.833C307.323 142.833 331.5 118.881 331.5 89.3334C331.5 61.1192 309.456 38.0061 281.5 35.9779C279.297 35.8181 277.5 37.6242 277.5 39.8334L277.5 41.5606C277.5 43.7698 279.297 45.5419 281.497 45.7374C304.025 47.7388 321.682 66.4932 321.682 89.3334C321.682 113.508 301.901 133.106 277.5 133.106C254.459 133.106 235.537 115.632 233.5 93.3301C233.299 91.1302 231.527 89.3334 229.318 89.3334H227.5C225.291 89.3334 223.484 91.1305 223.649 93.3335C225.714 121.013 249.035 142.833 277.5 142.833Z" fill="#0063A3"/>
<rect width="535" height="158" transform="translate(555 10.3334)" fill="#F1F1F6"/>
<rect x="747.5" y="57.3334" width="150" height="64" rx="4" fill="#0063A3"/>
<g clip-path="url(#clip0_10871_175856)">
<path fill-rule="evenodd" clip-rule="evenodd" d="M779.5 105.333C788.337 105.333 795.5 98.17 795.5 89.3334C795.5 80.9868 789.109 74.1329 780.953 73.3985C780.153 73.3265 779.5 73.9846 779.5 74.7879V74.7879C779.5 75.5913 780.154 76.234 780.952 76.3221C787.499 77.0446 792.591 82.5943 792.591 89.3334C792.591 96.5633 786.73 102.424 779.5 102.424C772.761 102.424 767.211 97.3321 766.489 90.7856C766.401 89.9871 765.758 89.3334 764.955 89.3334V89.3334C764.151 89.3334 763.493 89.9868 763.565 90.7869C764.3 98.9423 771.153 105.333 779.5 105.333Z" fill="white"/>
<path d="M805.631 82.6283H810.519C812.61 82.6283 814.192 82.9219 815.267 83.5092C816.341 84.0964 816.878 85.1276 816.878 86.6029C816.878 87.1973 816.781 87.7344 816.588 88.2142C816.402 88.6941 816.13 89.0879 815.771 89.3959C815.413 89.7038 814.977 89.9043 814.461 89.9974V90.1049C814.984 90.2123 815.456 90.3985 815.879 90.6635C816.301 90.9213 816.638 91.3008 816.889 91.8021C817.146 92.2963 817.275 92.9551 817.275 93.7787C817.275 94.7312 817.043 95.5476 816.577 96.2279C816.112 96.9082 815.446 97.431 814.579 97.7963C813.72 98.1543 812.696 98.3334 811.507 98.3334H805.631V82.6283ZM808.961 88.848H810.895C811.861 88.848 812.531 88.6976 812.903 88.3969C813.276 88.0889 813.462 87.6377 813.462 87.0433C813.462 86.4418 813.24 86.0121 812.796 85.7543C812.359 85.4893 811.664 85.3568 810.712 85.3568H808.961V88.848ZM808.961 91.4906V95.5834H811.131C812.133 95.5834 812.832 95.39 813.226 95.0033C813.619 94.6166 813.816 94.0974 813.816 93.4457C813.816 93.059 813.73 92.7188 813.559 92.4252C813.387 92.1316 813.097 91.9024 812.688 91.7377C812.287 91.573 811.732 91.4906 811.023 91.4906H808.961ZM831.426 86.3236V98.3334H828.912L828.472 96.7972H828.3C828.042 97.2054 827.72 97.5385 827.333 97.7963C826.946 98.0541 826.52 98.2439 826.055 98.3656C825.589 98.4873 825.106 98.5482 824.604 98.5482C823.745 98.5482 822.997 98.3978 822.359 98.097C821.722 97.7891 821.224 97.3129 820.866 96.6683C820.515 96.0238 820.34 95.1859 820.34 94.1547V86.3236H823.616V93.3383C823.616 94.1976 823.77 94.8457 824.078 95.2826C824.386 95.7194 824.877 95.9379 825.55 95.9379C826.216 95.9379 826.739 95.7875 827.118 95.4867C827.498 95.1788 827.763 94.7312 827.913 94.1439C828.071 93.5495 828.149 92.8262 828.149 91.974V86.3236H831.426ZM840.173 95.9379C840.531 95.9379 840.878 95.9021 841.215 95.8304C841.559 95.7588 841.899 95.6693 842.235 95.5619V98.0004C841.884 98.1579 841.448 98.2868 840.925 98.3871C840.409 98.4945 839.843 98.5482 839.228 98.5482C838.511 98.5482 837.867 98.4336 837.294 98.2045C836.728 97.9681 836.281 97.5635 835.951 96.9906C835.629 96.4105 835.468 95.6049 835.468 94.5736V88.7836H833.899V87.3978L835.704 86.3021L836.649 83.767H838.744V86.3236H842.106V88.7836H838.744V94.5736C838.744 95.0319 838.873 95.3757 839.131 95.6049C839.396 95.8269 839.743 95.9379 840.173 95.9379ZM849.983 95.9379C850.341 95.9379 850.689 95.9021 851.025 95.8304C851.369 95.7588 851.709 95.6693 852.046 95.5619V98.0004C851.695 98.1579 851.258 98.2868 850.735 98.3871C850.22 98.4945 849.654 98.5482 849.038 98.5482C848.322 98.5482 847.677 98.4336 847.104 98.2045C846.539 97.9681 846.091 97.5635 845.762 96.9906C845.439 96.4105 845.278 95.6049 845.278 94.5736V88.7836H843.71V87.3978L845.515 86.3021L846.46 83.767H848.555V86.3236H851.917V88.7836H848.555V94.5736C848.555 95.0319 848.684 95.3757 848.941 95.6049C849.206 95.8269 849.554 95.9379 849.983 95.9379ZM865.648 92.307C865.648 93.3096 865.512 94.1976 865.24 94.9711C864.975 95.7445 864.585 96.3998 864.069 96.9369C863.561 97.4668 862.945 97.8679 862.222 98.14C861.506 98.4122 860.696 98.5482 859.794 98.5482C858.949 98.5482 858.172 98.4122 857.463 98.14C856.761 97.8679 856.149 97.4668 855.626 96.9369C855.11 96.3998 854.709 95.7445 854.423 94.9711C854.144 94.1976 854.004 93.3096 854.004 92.307C854.004 90.975 854.24 89.847 854.713 88.9232C855.186 87.9994 855.859 87.2976 856.732 86.8177C857.606 86.3379 858.648 86.098 859.858 86.098C860.983 86.098 861.978 86.3379 862.845 86.8177C863.718 87.2976 864.402 87.9994 864.896 88.9232C865.398 89.847 865.648 90.975 865.648 92.307ZM857.345 92.307C857.345 93.0948 857.431 93.7572 857.603 94.2943C857.774 94.8314 858.043 95.236 858.408 95.5082C858.773 95.7803 859.25 95.9164 859.837 95.9164C860.417 95.9164 860.886 95.7803 861.244 95.5082C861.609 95.236 861.874 94.8314 862.039 94.2943C862.211 93.7572 862.297 93.0948 862.297 92.307C862.297 91.5121 862.211 90.8532 862.039 90.3304C861.874 89.8005 861.609 89.403 861.244 89.1381C860.879 88.8731 860.403 88.7406 859.815 88.7406C858.949 88.7406 858.319 89.0378 857.925 89.6322C857.538 90.2266 857.345 91.1182 857.345 92.307ZM875.427 86.098C876.709 86.098 877.74 86.4489 878.521 87.1508C879.301 87.8454 879.691 88.9626 879.691 90.5023V98.3334H876.415V91.3187C876.415 90.4594 876.257 89.8112 875.942 89.3744C875.634 88.9375 875.147 88.7191 874.481 88.7191C873.479 88.7191 872.795 89.0593 872.43 89.7396C872.064 90.42 871.882 91.4011 871.882 92.683V98.3334H868.605V86.3236H871.108L871.549 87.8597H871.731C871.989 87.4444 872.308 87.1078 872.688 86.85C873.074 86.5922 873.5 86.4024 873.966 86.2806C874.438 86.1589 874.925 86.098 875.427 86.098Z" fill="white"/>
</g>
<defs>
<clipPath id="clip0_10871_175856">
<rect width="118" height="32" fill="white" transform="translate(763.5 73.3334)"/>
</clipPath>
</defs>
</svg>

<svg width="1100" height="179" fill="none" xmlns="http://www.w3.org/2000/svg"><path fill="#fff" d="M0 .333h1100v178H0z"/><path fill="#F1F1F6" d="M10 10.333h535v158H10z"/><path fill-rule="evenodd" clip-rule="evenodd" d="M277.5 142.833c29.823 0 54-23.952 54-53.5 0-28.214-22.044-51.327-50-53.355-2.203-.16-4 1.646-4 3.855v1.728c0 2.209 1.797 3.98 3.997 4.176 22.528 2.002 40.185 20.756 40.185 43.596 0 24.175-19.781 43.773-44.182 43.773-23.041 0-41.963-17.474-44-39.776-.201-2.2-1.973-3.997-4.182-3.997H227.5c-2.209 0-4.016 1.797-3.851 4 2.065 27.68 25.386 49.5 53.851 49.5z" fill="#0063A3"/><path fill="#F1F1F6" d="M555 10.333h535v158H555z"/><rect x="747.5" y="57.333" width="150" height="64" rx="4" fill="#0063A3"/><g clip-path="url(#prefix__clip0_10871_175856)" fill="#fff"><path fill-rule="evenodd" clip-rule="evenodd" d="M779.5 105.333c8.837 0 16-7.163 16-16 0-8.346-6.391-15.2-14.547-15.934-.8-.073-1.453.586-1.453 1.389s.654 1.446 1.452 1.534c6.547.723 11.639 6.272 11.639 13.011 0 7.23-5.861 13.091-13.091 13.091-6.739 0-12.289-5.092-13.011-11.638-.088-.799-.731-1.453-1.534-1.453-.804 0-1.462.654-1.39 1.454.735 8.155 7.588 14.546 15.935 14.546z"/><path d="M805.631 82.628h4.888c2.091 0 3.673.294 4.748.881 1.074.587 1.611 1.619 1.611 3.094 0 .594-.097 1.131-.29 1.611a2.91 2.91 0 01-.817 1.182 2.7 2.7 0 01-1.31.601v.108c.523.107.995.293 1.418.558.422.258.759.638 1.01 1.14.257.493.386 1.152.386 1.976 0 .952-.232 1.769-.698 2.449-.465.68-1.131 1.203-1.998 1.568-.859.358-1.883.537-3.072.537h-5.876V82.628zm3.33 6.22h1.934c.966 0 1.636-.15 2.008-.451.373-.308.559-.76.559-1.354 0-.601-.222-1.03-.666-1.289-.437-.265-1.132-.397-2.084-.397h-1.751v3.491zm0 2.643v4.092h2.17c1.002 0 1.701-.193 2.095-.58.393-.386.59-.906.59-1.557a1.99 1.99 0 00-.257-1.02c-.172-.294-.462-.524-.871-.688-.401-.165-.956-.247-1.665-.247h-2.062zm22.465-5.167v12.01h-2.514l-.44-1.537h-.172c-.258.408-.58.742-.967 1a4.21 4.21 0 01-1.278.569 5.715 5.715 0 01-1.451.182c-.859 0-1.607-.15-2.245-.451a3.345 3.345 0 01-1.493-1.429c-.351-.644-.526-1.482-.526-2.513v-7.831h3.276v7.014c0 .86.154 1.508.462 1.945.308.436.799.655 1.472.655.666 0 1.189-.15 1.568-.451.38-.308.645-.756.795-1.343.158-.595.236-1.318.236-2.17v-5.65h3.277zm8.747 9.614c.358 0 .705-.036 1.042-.108.344-.071.684-.16 1.02-.268V98a5.985 5.985 0 01-1.31.387 8.34 8.34 0 01-1.697.161c-.717 0-1.361-.114-1.934-.344-.566-.236-1.013-.64-1.343-1.213-.322-.58-.483-1.386-.483-2.417v-5.79h-1.569v-1.386l1.805-1.096.945-2.535h2.095v2.557h3.362v2.46h-3.362v5.79c0 .458.129.802.387 1.03.265.223.612.334 1.042.334zm9.81 0c.358 0 .706-.036 1.042-.108.344-.071.684-.16 1.021-.268V98a5.995 5.995 0 01-1.311.387 8.325 8.325 0 01-1.697.161c-.716 0-1.361-.114-1.934-.344-.565-.236-1.013-.64-1.342-1.213-.323-.58-.484-1.386-.484-2.417v-5.79h-1.568v-1.386l1.805-1.096.945-2.535h2.095v2.557h3.362v2.46h-3.362v5.79c0 .458.129.802.386 1.03.265.223.613.334 1.042.334zm15.665-3.631c0 1.003-.136 1.89-.408 2.664-.265.773-.655 1.429-1.171 1.966a4.92 4.92 0 01-1.847 1.203c-.716.272-1.526.408-2.428.408a6.452 6.452 0 01-2.331-.408 5.182 5.182 0 01-1.837-1.203c-.516-.537-.917-1.192-1.203-1.966-.279-.773-.419-1.661-.419-2.664 0-1.332.236-2.46.709-3.384.473-.924 1.146-1.625 2.019-2.105.874-.48 1.916-.72 3.126-.72 1.125 0 2.12.24 2.987.72.873.48 1.557 1.181 2.051 2.105.502.924.752 2.052.752 3.384zm-8.303 0c0 .788.086 1.45.258 1.987.171.537.44.942.805 1.214.365.272.842.408 1.429.408.58 0 1.049-.136 1.407-.408.365-.272.63-.677.795-1.214.172-.537.258-1.2.258-1.987 0-.795-.086-1.454-.258-1.977-.165-.53-.43-.927-.795-1.192-.365-.265-.841-.397-1.429-.397-.866 0-1.496.297-1.89.891-.387.595-.58 1.486-.58 2.675zm18.082-6.209c1.282 0 2.313.35 3.094 1.053.78.694 1.17 1.812 1.17 3.351v7.831h-3.276V91.32c0-.86-.158-1.508-.473-1.945-.308-.436-.795-.655-1.461-.655-1.002 0-1.686.34-2.051 1.02-.366.681-.548 1.662-.548 2.944v5.65h-3.277v-12.01h2.503l.441 1.537h.182c.258-.416.577-.752.957-1.01a4.19 4.19 0 011.278-.57 5.828 5.828 0 011.461-.182z"/></g><defs><clipPath id="prefix__clip0_10871_175856"><path fill="#fff" transform="translate(763.5 73.333)" d="M0 0h118v32H0z"/></clipPath></defs></svg>
